src/containers/KickStart/floppy-disc.svg

<svg width="134" height="120" xmlns="http://www.w3.org/2000/svg"><g fill="none" fill-rule="evenodd"><path d="M18 2V0h16v41h2v1H16v-2h-2V2h4z" fill="#202060"/><path d="M128 6V4h2v2h2v2h2v112H0V4h2V2h2V0h10v40h2v2h86v-1h2V2h2V0h20v2h2v4zm0 2h4z" fill="#203080"/><path d="M16 54v-2h104v2h2v66H14V54h2zM4 110h6v4H4z" fill="#202060"/><path d="M102 41v1H36v-1h-2V0h70v41h-2z" fill="#948976"/><path fill="#202060" d="M75 8h14v30H75z"/><path d="M18 58v-4h100v4h2v62H16V58h2z" fill="#FFF"/><path d="M6 8V6h2v2h1v2h1v2H8v4H6v-4H4v-2h1V8h1z" fill="#202060"/></g></svg>

<?xml version="1.0" encoding="UTF-8"?>
<svg width="134px" height="120px" viewBox="0 0 134 120" version="1.1" xmlns="http://www.w3.org/2000/svg" xmlns:xlink="http://www.w3.org/1999/xlink">
    <!-- Generator: Sketch 53.2 (72643) - https://sketchapp.com -->
    <title>floppy-disc</title>
    <desc>Created with Sketch.</desc>
    <g id="Page-1" stroke="none" stroke-width="1" fill="none" fill-rule="evenodd">
        <g id="kickstart" transform="translate(-436.000000, -304.000000)">
            <g id="floppy-disc" transform="translate(436.000000, 304.000000)">
                <path d="M18,2 L18,0 L34,0 L34,2 L34,40 L34,41 L36,41 L36,42 L34,42 L16,42 L16,40 L14,40 L14,2 L18,2 Z" id="Combined-Shape" fill="#202060"></path>
                <path d="M128,6 L128,4 L130,4 L130,6 L132,6 L132,8 L134,8 L134,42 L134,120 L0,120 L0,54 L0,40 L0,4 L2,4 L2,2 L4,2 L4,0 L14,0 L14,2 L14,4 L14,40 L16,40 L16,42 L102,42 L102,41 L104,41 L104,8 L104,2 L106,2 L106,0 L126,0 L126,2 L128,2 L128,6 Z M128,8 L132,8 Z" id="Combined-Shape" fill="#203080"></path>
                <path d="M16,54 L16,52 L120,52 L120,54 L122,54 L122,120 L14,120 L14,54 L16,54 Z" id="Combined-Shape" fill="#202060"></path>
                <rect id="tab" fill="#202060" x="4" y="110" width="6" height="4"></rect>
                <path d="M102,41 L102,42 L36,42 L36,41 L34,41 L34,0 L104,0 L104,41 L102,41 Z" id="shutter" fill="#948976"></path>
                <rect id="punch" fill="#202060" x="75" y="8" width="14" height="30"></rect>
                <path d="M18,58 L18,54 L118,54 L118,58 L120,58 L120,120 L16,120 L16,58 L18,58 Z" id="label" fill="#FFFFFF"></path>
                <path d="M6,8 L6,6 L8,6 L8,8 L9,8 L9,10 L10,10 L10,12 L8,12 L8,16 L6,16 L6,12 L4,12 L4,10 L5,10 L5,8 L6,8 Z" id="arrow" fill="#202060"></path>
            </g>
        </g>
    </g>
</svg>
